X: 1026
T: Hicaz Seyir
C: Rauf Yektâ
O: Turkey
F: http://compmusic.upf.edu/node/140
N: hicaz--seyir--semai--1--rauf_yekta
N: makam= hicaz
N: form= seyir
N: usul= semai = 3/4
M: 3/4
L: 1/16
K: C _7/8B ^f ^c 
Q: 1/4=120
%%MIDI tuningsystem comma53
A8 c4  | d8 e4  | d8 c4  | B4 A4 G4  | A8 c4  | \
w:   |   |   |   |   | 
d8 e2=f2  | e4 d4 c4  | d8 z4  | z4 c4 d4  | 
w:   |   |   |   | 
e4 =f8  | e8 d4  | c4 B4 A4  | z4 B4 c4  | \
w:   |   |   |   | 
d4 e4 d4  | c4 B4 A4  | B8 z4  | G8 A4  | A8 z4  | 
w:   |   |   |   |   | 
B4 c4 d4  | c4 B4 A4  | A8 =f4  | e4 d4 c4  | \
w:   |   |   |   | 
c4 B4 A4  | A8 z4  | A8 ^g4  | a8 z4  | ^g4 ^1/4f4 e4  | 
w:   |   |   |   |   | 
d4 c4 B4  | A8 ^g4  | a8 ^g4  | ^g4 ^1/4f4 e4  | \
w:   |   |   |   | 
e8 z4  | z4 d4 e4  | f4 g4 a4  | a8 g4  | =f4 e4 d4  | 
w:   |   |   |   |   | 
e4 =f4 g4  | =f4 e4 d4  | d4 c4 B4  | c8 z4  | \
w:   |   |   |   | 
G8 A4  | A8 z4  | B4 c4 d4  | c4 B4 A4  | 
w:   |   |   |   | 
A8 =f4  | e4 d4 c4  | c4 B4 A4  | A8 z4  | |


